!!!!SEGMENT: pl-kozmzk--mzk-m-137--006_cwiklicz-boleslaw-jan--zyciam-wiek-caly-przemarnial-w-wiezieniu.krn
!!!cenid: 18xx:2964
!!!COM: Ćwiklicz, Bolesław Jan
!!!COM-rismid: pe41023611
!!!CDT: ~1800-~1899
!!!CNT: Polish
!!!OTL: Życiam wiek cały przemarniał w więzieniu
!!!PDT:
!!!AGN: Secular
!!!SMS-siglum: PL-KOZmzk
!!!SMS-shelfmark: mzk/m/137
!!!SMS-shelfwork: 006 W
!!!SMS-variant:
!!!SMS-altvar:
!!!NIFC-rismid: 1001084050
!!!URL-scan: https://repozytorium.nifc.pl/islandora/object/pl-kozmzk%3A1738/datastream/PDF/view
!!!ONB-nifc:
**kern	**kern	**text	**dynam
*part1	*part1	*part1	*part1
*staff2	*staff1	*staff1	*
*Iempty	*Iempty	*	*
*I"	*I"	*	*
*clefF4	*clefG2	*	*
*k[b-e-a-d-g-]	*k[b-e-a-d-g-]	*	*
*b-:	*b-:	*	*
*M4/4	*M4/4	*	*
*met(c)	*met(c)	*	*
=1	=1	=1	=1
*^	*^	*	*
!	!	!LO:TX:a:t=Cienion Sp. Waleryana Łukusińskiego.	!	!	!
!	!	!LO:TX:a:t=6. Życiam wiek cały przemarniał w więzieniu..	!	!	!
!LO:TX:a:t=Ponuro a nie\nnazbyt wolno.	!	!LO:TX:a:t=Słowa Z. Krasińskiego	!	!	!
2D-/	2BB-\	4b-/	2f\	Ży-	p <
.	.	2cc/	.	-ciam	.
4E-/	4BB-\	.	4g-\	.	.
4F/	4BB-\	4dd-/	4b-\	wiek	.
=2	=2	=2	=2	=2	=2
*	*	*	*^	*	*
(4G-/	2BB-\	(4een/	2b-\	2dd-/	ca-	.
4F/)	.	4ff/)	.	.	.	.
4E-X/	4BB-\	4cc/	4an\	2ryy	-ły	.
4F/	4BB-\	4dd-/	4b-\	.	prze-	[ >
*	*	*	*v	*v	*	*
=3	=3	=3	=3	=3	=3
(4Gn/	2BB-\	2ee-X/	2b-\	-ma-	.
4G-X/)	.	.	.	.	.
4F/	4BB-\	4ddn/	4b-\	-rniał	.
4En/	4BB-\	4b-/	4gn\	w wię-	.
=4	=4	=4	=4	=4	=4
(4F/	2BB-\	(4dd-X/	2g-X\	-zie-	.
4E-X/)	.	4cc-X/)	.	.	.
!	!	!LO:TX:a:t=muzyka B. Cwiklicza	!	!	!
(4Dn/	2BB-\	2b-/	2f\	-niu,	.
4D-X/)	.	.	.	.	.
!!LO:LB:g=original
=5	=5	=5	=5	=5	=5
!	!	!	!LO:TX:t=P:problem:błędne wyświetlanie łuku	!	!
(4C/	(4AAn\	2ff/	(>4f\	W nę-	] <
4D-/)	4BB-\)	.	4b-\)	.	.
4C/	4C\	4een/	4gn\	dzy,	.
4En/	4BB-\	4ccn/	4g\	w cho-	.
=6	=6	=6	=6	=6	=6
!	!	!	!LO:TX:t=P:problem:błędne wyświetlanie łuku	!	!
(4E-/	(4C\	2gg-X/	(>4an\	-ro-	.
4D-/)	4BB-\)	.	4b-\)	.	[
4F/	4AAn\	4ff/	4cc\	bie,	.
4Gn/	4C\	4een/	4cc\	w cie-	.
=7	=7	=7	=7	=7	=7
(4G-X/	(4E-\	(4ee-X/	2b-\	-mno-	.
4F/)	4BB-\)	4ddn/)	.	.	>
4G-/	4GG-\	4dd-X/	4b-\	-ści,	.
4E-/	4AA-X\	4cc-X/	4a-\	w mil-	.
=8	=8	=8	=8	=8	=8
(4D-/	(4BB-\	2ff/	2f\	-cze-	.
4C/)	4AAn\)	.	.	.	.
(4BBn/	(4GG#X\	2f/	2f\	-niu,	.
4C/)	4AA\)	.	.	.	.
!!LO:PB:g=original
=9	=9	=9	=9	=9	=9
2D-/	2BB-\	4b-/	2f\	Pa-	] mf <
.	.	2cc/	.	-mię-	.
4E-/	4BB-\	.	4g-\	.	.
4F/	4BB-\	4dd-/	4b-\	-ci	.
=10	=10	=10	=10	=10	=10
*	*	*	*^	*	*
(4G-/	2BB-\	(4een/	2b-\	2dd-/	zio-	.
4F/)	.	4ff/)	.	.	.	.
(4E-X/	2BB-\	(4cc/	(4an\	2ryy	-mków	[
4F/)	.	4dd-/)	4b-\)	.	.	.
*	*	*	*v	*v	*	*
=11	=11	=11	=11	=11	=11
4Gn/	4BB-\	4ee-/	4b-\	w raz	.
4G-X/	4BB-\	4ee-/	4b-\	.	.
4F/	4BB-\	4ddn/	4b-\	nie-	>
4En/	4BB-\	4b-/	4gn\	-wi-	.
=12	=12	=12	=12	=12	=12
(4F/	2BB-\	(4dd-X/	2g-X\	-do-	.
4E-X/)	.	4cc-X/)	.	.	.
(4Dn/	2BB-\	2b-/	2f\	-mszy,	.
4D-X/)	.	.	.	.	]
!!LO:LB:g=original
=13	=13	=13	=13	=13	=13
!	!	!	!LO:TX:t=P:problem:błędne wyświetlanie łuku	!	!
(4C/	(4AAn\	(2ff/	(>4f\	Tym,	<
4D-/	4BB-\	.	4b-\	.	.
4C/)	4C\)	4een/)	4gn\)	.	.
4En/	4BB-\	4ccn/	4g\	co	.
=14	=14	=14	=14	=14	=14
!	!	!	!LO:TX:t=P:problem:błędne wyświetlanie łuku	!	!
(4E-X/	(4C\	2gg-X/	(>4an\	mnie	.
4D-/)	4BB-\)	.	4b-\)	.	[
4F/	4AAn\	4ff/	4cc\	zna-	.
4Gn/	4C\	4een/	4cc\	-li,	.
=15	=15	=15	=15	=15	=15
4G-X/	4E-\	4ee-X/	4b-\	co	.
4F/	4BB-\	4ddn/	4b-\	raz	>
4G-/	4GG-\	4dd-X/	4b-\	nie-	.
4E-/	4AA-\	4cc-X/	4a-\	-zna-	.
=16	=16	=16	=16	=16	=16
(4F/	(4D-\	2ff/	2f\ 2an	-jo-	.
4E-/)	4C-X\)	.	.	.	.
2D-/	2BB-\	2b-/	2f\ 2b-	-mszy.	]
*v	*v	*	*	*	*
*	*v	*v	*	*
==	==	==	==
*-	*-	*-	*-
!!!system-decoration: [(s1,s2)]
!!!ENC: Marcin Jachim
!!!END: 2021-08-11
!!!ENC: Kamil Watkowski
!!!END: 2021-09-08
!!!RDF**kern: > = above
!!!RDF**kern: < = below
